!!!COM: Prokofiev, Sergey (Sergeyevich)
!!!OTL: Sonata No. 2 in D Major for Violin and Piano
!!!OMV: II: Scherzo: Presto
!!!example: 579
!!!work: Pro-37
**kern	**kern	**dynam	**kern	**dynam
*part2	*part2	*part2	*part1	*part1
*staff3	*staff2	*	*staff1	*
*I"Piano	*	*	*I"Violin	*
*I'Pno.	*	*	*I'Vln.	*
*clefF4	*clefG2	*	*clefG2	*
*k[]	*k[]	*	*k[]	*
*C:	*C:	*	*C:	*
*M3/4	*M3/4	*	*M3/4	*
*MM121	*MM121	*	*MM121	*
=7	=7	=7	=7	=7
4AA	4r	p	(8aL	p
.	.	.	8bJ	.
4r	4B 4c 4a	.	8cc)	.
.	.	.	8r	.
4C	4r	.	(8aL	.
.	.	.	8bJ	.
=8	=8	=8	=8	=8
4r	4A 4c 4f	.	8cc)	.
.	.	.	8r	.
4D	4r	.	(8aaL	.
.	.	.	8ffJ)	.
4DD	4r	.	(8cc'L	.
.	.	.	8dd'J)	.
=9	=9	=9	=9	=9
4AA	4r	.	(8aL	.
.	.	.	8bJ	.
4r	4B 4c 4e	.	8cc)	.
.	.	.	8r	.
4C	4r	.	(8aL	.
.	.	.	8bJ	.
=10	=10	=10	=10	=10
4r	4A 4c 4f	.	8cc)	.
.	.	.	8r	.
4D	4r	.	(8aaL	.
.	.	.	8ffJ)	.
4DD	4r	.	(8cc'L	.
.	.	.	8dd'J)	.
=11	=11	=11	=11	=11
4AA	4r	.	8aL	.
.	.	.	8bJ	.
4r	4B 4c 4e	.	8ccL	.
.	.	.	8ddJ	.
4GG	4r	.	8ccL	.
.	.	.	8ddJ	.
=12	=12	=12	=12	=12
4r	4B 4d#X 4f#X	<	8dd#XL	<
.	.	.	8ff#XJ	.
4FF#X	4r	.	8bbL	.
.	.	.	8ddd#XJ	.
4r	4f# 4b 4dd#X	.	8ccc#XL	.
.	.	.	8ddd#J	[[
=13	=13	=13	=13	=13
4r	4g#X^ 4b 4ee	[ mf	8eeeL	mf
.	.	.	8bbJ	.
8qF/	.	.	.	.
4G#X	4r	.	8gg#XL	.
.	.	.	8eeJ	.
4EE	4r	.	8eeL	.
.	.	.	8eeJ	.
=14	=14	=14	=14	=14
4r	4e	.	8eeL	.
.	.	.	8eeeJ	.
4D	4E	>	8eeeL	.
.	.	.	8eeeJ	.
4DD	4r	.	4ee	.
=15	=15	=15	=15	=15
4CC	4r	] p	(8eeL	.
.	.	.	8ffJ	.
4r	4c 4e 4g	.	8gg)	.
.	.	.	8r	.
4CC	4G	.	(8eeL	.
.	.	.	8ffJ	.
=16	=16	=16	=16	=16
4EE	4r	.	8gg)	.
.	.	.	8r	.
4r	4B-X 4d 4g	.	(8dddL	.
.	.	.	8bb-XJ)	.
4GG	4r	.	(8ff'L	.
.	.	.	8gg'J)	.
=17	=17	=17	=17	=17
4C	4r	.	(8eeL	.
.	.	.	8ffJ	.
4r	4c 4e 4g	.	8gg)	.
.	.	.	8r	.
4CC	4G	.	(8eeL	.
.	.	.	8ffJ	.
=18	=18	=18	=18	=18
4EE	4r	.	8gg)	.
.	.	.	8r	.
4r	4B-X 4d 4g	.	(8dddL	.
.	.	.	8bbJ)	.
4GG	4r	.	(8ff'L	.
.	.	.	8gg'J)	.
=19	=19	=19	=19	=19
4AA-X^	4A-X^	.	8aa-X'	.
.	.	.	8r	.
4r	4c 4e-X	.	8aa-L	.
.	.	.	8ee-XJ	.
4G	4r	.	8ccL	.
.	.	.	8ee-J	.
=20	=20	=20	=20	=20
4F'	4r	.	8aa-X'	.
.	.	.	8r	.
4r	4f 4a-X	.	8aa-L	.
.	.	.	8ffJ	.
4F	4r	.	8ccL	.
.	.	.	8ffJ	.
=21	=21	=21	=21	=21
4E-X'	4r	.	8aa-X'	.
.	.	.	8r	.
4r	4gg 4aa-X	.	8aa-L	.
.	.	.	8ggJ	.
4E-	4r	.	8ccL	.
.	.	.	8ggJ	.
=22	=22	=22	=22	=22
4D-X'	4r	.	8aa-X'	.
.	.	.	8r	.
4r	4fff 4aaa-X	.	8aa-L	.
.	.	.	8ffJ	.
4D-	4r	.	8dd-XL	.
.	.	.	8ffJ	.
=23	=23	=23	=23	=23
4C'	4r	.	8aa-X'	.
.	.	.	8r	.
.	(8qaa-X/	<	.	.
4r	4a-X) 4ee-X	.	8aa-L	<
.	.	.	8aa-J	.
4C	4r	.	8ee-XL	.
.	.	.	8ccJ	.
=24	=24	=24	=24	=24
4C'	4r	.	8a-X'	.
.	.	.	8r	.
.	(8qa-X/	.	.	.
4r	4F) 4e-X	.	8aa-XL	.
.	.	.	8aa-J	.
4C	4r	[	8ee-XL	.
.	.	.	8ccJ	[
=	=	=	=	=
*-	*-	*-	*-	*-
!!!system-decoration: s1{(s2,s3)}
!!!CDT: 1891/04/23-1953/03/05
!!!CBL: Sontsovka, Ukraine
!!!CDL: Moscow, Russia
!!!CNT: Russian
!!!AGN: Instrumental; Chamber
!!!MCN:
!!!MDT: 1944/06/17
!!!MGN:
!!!MLC: Moscow, Russia
!!!MPD: 1944
!!!MPN: Oborine, Lev; Oïstrakh, David
!!!ODT: 1944
!!!PDT: 1946
!!!excerpt-start-measure: 7
!!!excerpt-end-measure: 24
!!!excerpt-start-time: 0:04
!!!excerpt-end-time: 0:16
!!!EEV: 2020/01/25
!!!ONB: Converted from MusicXML on 2020/01/25
